source/img/diets/cat-slim-tablet.svg

<svg width="140" height="194" viewBox="0 0 140 194" fill="none" xmlns="http://www.w3.org/2000/svg">
<g clip-path="url(#clip0)">
<path d="M109.68 0H108.92C107.636 0.725875 106.614 1.83883 106 3.18C104.875 5.34423 104.009 7.63331 103.42 10C103.294 10.7116 102.934 11.3611 102.398 11.8462C101.863 12.3313 101.181 12.6246 100.46 12.68C98.2558 13.06 96.1675 13.9386 94.3546 15.2489C92.5418 16.5591 91.0523 18.2663 90 20.24C88.5532 22.8026 87.3158 25.478 86.3 28.24C83.46 35.6 81.28 43.2 78.6 50.62C77.34 54 77.28 54 73.48 54C68.94 54 69.26 53.3 69.2 58.3C69.2 59.88 69.68 60.68 71.36 60.6C71.88 60.6 72.66 60.34 72.86 61.02C73.06 61.7 72.38 62 71.98 62.4C69.6086 64.8073 66.6075 66.4984 63.32 67.28C59.52 68.3 55.64 69.1 51.94 70.34C42.44 73.52 33.66 77.96 26.82 85.48C22.8206 90.1507 19.6177 95.4483 17.34 101.16C10 118.44 6.44 136.64 3.68 155.02C2.38 163.64 1.46 172.3 0.76 181.02C0.4 185.3 0 189.64 0 194H66.66C66.7707 193.12 66.6102 192.227 66.2 191.44C65.5589 189.844 64.5171 188.441 63.1753 187.365C61.8335 186.29 60.237 185.578 58.54 185.3C57.14 184.98 56.98 184.56 57.84 183.46C59.2427 181.588 60.318 179.492 61.02 177.26C64.28 167.64 65.54 157.6 67.12 147.66C68.0125 140.068 70.3477 132.716 74 126C76.8488 121.057 80.6486 116.727 85.18 113.26C86.84 112 86.9 112 87.18 114.14C87.38 115.56 87.42 117.02 87.52 118.46C88.1202 127.909 87.9998 137.39 87.16 146.82C86.4048 154.13 86.3044 161.492 86.86 168.82C87.6551 177.327 89.1739 185.751 91.4 194H118C117.653 191.835 116.656 189.826 115.142 188.241C113.627 186.655 111.667 185.567 109.52 185.12C107.013 184.722 104.45 184.858 102 185.52C100.8 185.8 100.3 185.52 100.2 184.22C99.3725 173.632 100.046 162.98 102.2 152.58C104.868 140.574 106.91 128.438 108.32 116.22C108.845 111.286 110.398 106.517 112.88 102.22C115.26 97.98 117.34 93.58 119.68 89.32C120.609 87.771 121.168 86.0286 121.314 84.2282C121.46 82.4279 121.188 80.6182 120.52 78.94C119.98 77.52 119.46 76.08 118.8 74.72C116.8 70.82 114.8 66.96 112.96 63.02C111.98 61.02 112.2 60.78 114.38 60.72C117.64 60.72 117.64 60.72 117.7 57.44C117.7 57 117.7 56.56 117.7 56.12C117.7 54.74 117.18 53.98 115.7 54.12C114.7 54.12 113.7 54.12 112.66 54.12C111.28 54.12 110.88 53.54 111.22 52.12C111.895 49.8116 113.222 47.7473 115.042 46.1755C116.862 44.6037 119.098 43.5912 121.48 43.26C125.911 42.8758 130.376 43.1657 134.72 44.12C135.221 44.2779 135.765 44.2322 136.232 43.9927C136.7 43.7531 137.055 43.3391 137.22 42.84C138.02 40.84 138.9 38.84 139.8 36.84C140.004 36.4852 140.094 36.0763 140.058 35.6686C140.023 35.2608 139.863 34.8739 139.6 34.56C133.2 26.44 126.26 18.86 116.8 14C116.343 13.8033 115.942 13.4952 115.635 13.1039C115.328 12.7127 115.123 12.2506 115.04 11.76C114.505 8.90102 113.653 6.11051 112.5 3.44C111.959 2.01723 110.969 0.809563 109.68 0V0Z" fill="black"/>
</g>
<defs>
<clipPath id="clip0">
<rect width="140" height="194" fill="white"/>
</clipPath>
</defs>
</svg>

<svg width="140" height="194" fill="none" xmlns="http://www.w3.org/2000/svg"><g clip-path="url(#clip0)"><path d="M109.68 0h-.76A7 7 0 00106 3.18c-1.13 2.16-2 4.45-2.58 6.82a3.26 3.26 0 01-2.96 2.68A14.68 14.68 0 0090 20.24a54.62 54.62 0 00-3.7 8c-2.84 7.36-5.02 14.96-7.7 22.38C77.34 54 77.28 54 73.48 54c-4.54 0-4.22-.7-4.28 4.3 0 1.58.48 2.38 2.16 2.3.52 0 1.3-.26 1.5.42.2.68-.48.98-.88 1.38a18 18 0 01-8.66 4.88c-3.8 1.02-7.68 1.82-11.38 3.06-9.5 3.18-18.28 7.62-25.12 15.14a56 56 0 00-9.48 15.68C10 118.44 6.44 136.64 3.68 155.02a375.77 375.77 0 00-2.92 26C.4 185.3 0 189.64 0 194h66.66a4.36 4.36 0 00-.46-2.56 10 10 0 00-7.66-6.14c-1.4-.32-1.56-.74-.7-1.84a20.7 20.7 0 003.18-6.2c3.26-9.62 4.52-19.66 6.1-29.6A60 60 0 0174 126a43.2 43.2 0 0111.18-12.74c1.66-1.26 1.72-1.26 2 .88.2 1.42.24 2.88.34 4.32.6 9.45.48 18.93-.36 28.36-.76 7.31-.86 14.67-.3 22 .8 8.5 2.31 16.93 4.54 25.18H118a10.82 10.82 0 00-8.48-8.88 18 18 0 00-7.52.4c-1.2.28-1.7 0-1.8-1.3a112.7 112.7 0 012-31.64c2.67-12 4.71-24.14 6.12-36.36a35.5 35.5 0 014.56-14c2.38-4.24 4.46-8.64 6.8-12.9a11.75 11.75 0 00.84-10.38c-.54-1.42-1.06-2.86-1.72-4.22-2-3.9-4-7.76-5.84-11.7-.98-2-.76-2.24 1.42-2.3 3.26 0 3.26 0 3.32-3.28v-1.32c0-1.38-.52-2.14-2-2h-3.04c-1.38 0-1.78-.58-1.44-2a12.48 12.48 0 0110.26-8.86 44 44 0 0113.24.86 2 2 0 002.5-1.28c.8-2 1.68-4 2.58-6a2 2 0 00-.2-2.28c-6.4-8.12-13.34-15.7-22.8-20.56a2.98 2.98 0 01-1.76-2.24 39.16 39.16 0 00-2.54-8.32A7 7 0 00109.68 0z" fill="#000"/></g><defs><clipPath id="clip0"><path fill="#fff" d="M0 0h140v194H0z"/></clipPath></defs></svg>
